!!!!SEGMENT: pl-sa--l-1636--092_anonim--stella-caeli.krn
!!!cenid: 17xx:799
!!!COM: Anonim
!!!COM-rismid: pe30004985
!!!CDT:
!!!CNT:
!!!OTL: Stella caeli
!!!PDT:
!!!AGN: Sacred
!!!SMS-siglum: PL-SA
!!!SMS-shelfmark: L 1636
!!!SMS-shelfwork: 092 W
!!!SMS-variant:
!!!SMS-altvar:
!!!NIFC-rismid: 1001087439
!!!URL-scan: http://repozytorium.nifc.pl/skany/pl-sa-nut--l1636
!!!ONB-nifc: 43v-44r, skan 0039, s. 3-5
**kern	**kern
*part1	*part1
*staff2	*staff1
*Iempty	*Iempty
*I"	*I"
*clefF4	*clefC1
*k[f#c#]	*k[f#c#]
*D:	*D:
*M3/2	*M3/2
*>[A,A,B,B]	*>[A,A,B,B]
=1	=1
*>A	*>A
*all\right	*all\right
*	*^
!	!LO:TX:b:t=Stella Caeli	!LO:TX:a:t=P:problem:krzyżyki f# cc# jeden nad drugim
4D/	1f#	1d
4C#/	.	.
2BB/	.	.
*2\right	*	*
2E\	2g#X/	4e\
.	.	4d\
=2	=2	=2
2.AA\	1a	1e 1c#
4BB\	.	.
4C#\	2a 2e/	2c#\
4AA\	.	.
=3	=3	=3
*	*	*2\right
2D/	1cc#	2a\
2BB/	.	4g#X\
.	.	4f#\
2E\	2b 2g#/	4e\
.	.	4d\
*	*v	*v
=4	=4
1.A 1.E 1.C# 1.AA	1.a 1.e 1.c#
!!LO:LB:g=original
=5	=5
1D	1f# 1d
2C#/	2e/
=6	=6
*	*^
1BB	2f#/	1d
.	2g#X/	.
2AA/	2a/	2e\
=7	=7	=7
2D/	1b	2a\
2BB/	.	4g#X\
.	.	4f#\
2E\	2g#/	4e\
.	.	4d\
*	*v	*v
=8	=8
1.A 1.E 1.C# 1.AA	1.a 1.e 1.c#
=9:|!|:	=9:|!|:
*>B	*>B
*	*^
4A\	1e	1c#
4B\	.	.
4A\	.	.
4G\	.	.
2F#\	2f#/	2d\
=10	=10	=10
2E\	1g	1e
4BB\	.	.
4C#\	.	.
2D\	2f#/	2d\
=11	=11	=11
2D\	2.a/	2.f#\
4D\	.	.
4E\	4g/	4e\
4F#\	2f#/	2d\
4G\	.	.
=12	=12	=12
4A\	1e	1c#
8AA/L	.	.
8BB/J	.	.
4C#/	.	.
4BB/	.	.
4C#/	2e/	2c#\
4AA/	.	.
=13	=13	=13
1.F# 1.DD	2f#/	2d\
.	2g/	2e\
.	2a/	2f#\
!!LO:PB:g=original
=14	=14	=14
1E	1g	2B\
.	.	2c#\
4F#\	2f#/	2d\
4G\	.	.
=15	=15	=15
*	*	*^
1A	1e	2d\	1ryy
.	.	4c#\	.
.	.	4B\	.
2AA/	2e/	2c#\	4ryy
.	.	.	4g/
*	*v	*v	*v
=16	=16
1.F# 1.D 1.AA 1.FF# 1.DD	1.f# 1.d 1.A
=:|!	=:|!
*-	*-
!!!system-decoration: s1,s2
!!!ENC: Marta Lawrence
!!!END: 2020-12-09
!!!ENC: Tomasz Grochalski
!!!END: 2020-06-12
